X: 1
T:Charlie Hunter
M:6/8
L:1/8
C:Bobby MacLeod
R:Jig
K:D
"A7"A|"D"DFA "G"GBd|"D"Adf a2g|"D"fed "Bm"Bcd|"E7"ecA "A7"GFE|
"D"DFA "G"GBd|!"D"Adf a2g|"G"fef "A7"gec|edc "D"d2:|
|:f/g/|"D"afd "D7"d2c|"G"BGG G2F|!"E"E^GB "E7"e2d|"A"cAA "A7"Aag|
"D"fdA "D7"FDF|"G"GBd "Em7"g2g|"G"fef "A7"gec|edc "D"d2:|
